lib/flags/s/BIH.svg

<svg xmlns="http://www.w3.org/2000/svg" fill="none" viewBox="0 0 16 12"><mask id="BIH_svg__a" width="17" height="12" x="0" y="0" mask-type="alpha" maskUnits="userSpaceOnUse"><path fill="#fff" d="M0 0H17V12H0z"/></mask><g fill-rule="evenodd" clip-rule="evenodd" mask="url(#BIH_svg__a)"><path fill="#2E42A5" d="M0 0H16V12H0V0Z"/><path fill="#FECA00" d="M5 0H15V12L5 0Z"/><path fill="#F7FCFF" d="M3.55402 1.39691 2.96624 1.70593 3.07849 1.05142 2.60297.587895 3.26013.492403 3.55402-.103088 3.84792.492403 4.50508.587895 4.02955 1.05142 4.14181 1.70593 3.55402 1.39691zM5.29737 3.53699 4.70958 3.846 4.82184 3.1915 4.34631 2.72797 5.00348 2.63248 5.29737 2.03699 5.59126 2.63248 6.24843 2.72797 5.7729 3.1915 5.88516 3.846 5.29737 3.53699zM6.93171 5.61926 6.34392 5.92828 6.45618 5.27377 5.98065 4.81025 6.63782 4.71475 6.93171 4.11926 7.2256 4.71475 7.88276 4.81025 7.40724 5.27377 7.51949 5.92828 6.93171 5.61926zM8.53269 7.61462 7.94491 7.92364 8.05716 7.26913 7.58163 6.80561 8.2388 6.71012 8.53269 6.11462 8.82658 6.71012 9.48375 6.80561 9.00822 7.26913 9.12048 7.92364 8.53269 7.61462zM10.2572 9.6684 9.66944 9.97741 9.7817 9.3229 9.30617 8.85938 9.96333 8.76389 10.2572 8.1684 10.5511 8.76389 11.2083 8.85938 10.7328 9.3229 10.845 9.97741 10.2572 9.6684zM12.1634 11.6555 11.5756 11.9645 11.6879 11.31 11.2124 10.8465 11.8695 10.751 12.1634 10.1555 12.4573 10.751 13.1145 10.8465 12.639 11.31 12.7512 11.9645 12.1634 11.6555z"/></g></svg>

<svg xmlns="http://www.w3.org/2000/svg" fill="none" viewBox="0 0 16 12"><mask id="BIH_svg__a" width="17" height="12" x="0" y="0" maskUnits="userSpaceOnUse"><path fill="#fff" d="M0 0h17v12H0z"/></mask><g fill-rule="evenodd" clip-rule="evenodd" mask="url(#BIH_svg__a)"><path fill="#2E42A5" d="M0 0h16v12H0V0z"/><path fill="#FECA00" d="M5 0h10v12L5 0z"/><path fill="#F7FCFF" d="M3.554 1.397l-.588.309.112-.655-.475-.463.657-.096.294-.595.294.595.657.096-.475.463.112.655-.588-.31zm1.743 2.14l-.587.309.112-.655-.476-.463.657-.096.294-.595.294.595.657.096-.475.463.112.655-.588-.309zM6.932 5.62l-.588.308.112-.654-.475-.464.657-.095.294-.596.294.596.657.095-.476.464.112.654-.587-.309zm1.601 1.995l-.588.309.112-.655-.475-.463.657-.096.294-.595.294.595.657.096-.476.463.112.655-.587-.31zm1.724 2.053l-.588.31.113-.655-.476-.464.657-.095.294-.596.294.596.657.095-.475.464.112.654-.588-.309zm1.907 1.987l-.588.31.112-.655-.476-.463.658-.096.294-.595.293.595.657.096-.475.463.112.654-.587-.309z"/></g></svg>
